!! 00000] TT[WS
!!!OTL: Yangliu qing
!!!ARE: Asia, China, Shanxi Heshun
!! Ethnic Group: Han
!! WI, 289 (1)
!!!SCT: J0348
!!!YEM: Copyright 1995, estate of Helmut Schaffrath.
**kern
*ICvox
*Ivox
*M2/4
*k[f#c#g#d#]
*E:
{4ee
8dd#
8cc#
=1
4ee
8dd#
8cc#
=2
8.ee
16ff#
8dd#
8cc#
=3
8bb
8gg#
8bb
8gg#
=4
8.b
16cc#
8ee
8cc#
=5
8ee
4b
16g#
16cc#
=6
2b}
=7
{8r
8gg#
8ff#
8gg#
=8
8ee
8gg#
8ff#
8ee
=9
8ee
8g#
8b
8ee
=10
8cc#
8b
8g#
8f#
=11
4e
4r}
=12
{8.b
16cc#
8b
8cc#
=13
8g#
8f#
4e
=14
8b
8cc#
8b
16b
16cc#
=15
8g#
8f#
4e}
=16
{8.b
16cc#
8b
8cc#
=17
8g#
8f#
4e
=18
8b
8cc#
8b
16b
16cc#
=19
8g#
8f#
4e}
=20
{8r
8gg#
8ff#
8gg#
=21
8.ee
16gg#
8ff#
8ee
=22
8ee
8g#
8.b
16ee
=23
8cc#
8b
8g#
8f#
=24
4e
4r}
==
!!!AGN: Xiaodiao. Xinminge, Xuanchuan
!! Neue Text. Politische Liede
!!!ONB: ESAC (Essen Associative Code) Database: CHINA
!!!AMT: simple duple
!!!AIN: vox
!!!EED: Helmut Schaffrath
!!!EEV: 1.0
*-
